X: 16085
T: Green Fields Of Woodford, The
R: jig
M: 6/8
K: Gmajor
e|:dBA G2E|EDE G2e|edB dBA|B2e ege|
dBA G2E|EDE GAB|AGE ABA|1 GED DBc:|2 GED D2 A||
B2G dGG|edB dBA|BGG dGG|edB AGA|
BGG dGG|edB dBA|GAB ABA|GED D2 A||
B2G dGG|edB dBA|BGG dGG|edB AGA|
BAB deg|age dBA|GAB ABA|GED DBc||

